icons/svg/table-row-remove.svg

﻿<?xml version="1.0" encoding="utf-8"?>
<!DOCTYPE svg PUBLIC "-//W3C//DTD SVG 1.1//EN" "http://www.w3.org/Graphics/SVG/1.1/DTD/svg11.dtd">
<svg xmlns="http://www.w3.org/2000/svg" xmlns:xlink="http://www.w3.org/1999/xlink" version="1.1" baseProfile="full" width="24" height="24" viewBox="0 0 24.00 24.00" enable-background="new 0 0 24.00 24.00" xml:space="preserve">
	<path fill="#000000" fill-opacity="1" stroke-width="0.2" stroke-linejoin="round" d="M 9.41422,13L 12,15.5858L 14.5858,13L 16,14.4142L 13.4142,17L 16,19.5858L 14.5858,21L 12,18.4142L 9.4142,21L 8,19.5858L 10.5858,17L 8,14.4142L 9.41422,13 Z M 21.9999,9.00001C 21.9999,10.1046 21.1045,11 20,11L 4,11C 2.89543,11 2,10.1046 2,9.00001L 2.00004,6.00001C 2.00004,4.89544 2.89547,4.00001 4.00004,4.00001L 20,4.00001C 21.1046,4.00001 22,4.89544 22,6.00001L 21.9999,9.00001 Z M 3.99999,9.00002L 7.99998,9.00002L 8.00002,5.99999L 4.00004,6L 3.99999,9.00002 Z M 9.99996,9.00002L 14,9.00001L 14,6.00001L 10,5.99999L 9.99996,9.00002 Z M 16,9.00001L 20,9.00002L 20,6L 16,6.00001L 16,9.00001 Z "/>
</svg>

<svg xmlns="http://www.w3.org/2000/svg" version="1.1" baseProfile="full" width="24" height="24" viewBox="0 0 24.00 24.00" xml:space="preserve"><path fill="#000" fill-opacity="1" stroke-width=".2" stroke-linejoin="round" d="M9.414 13L12 15.586 14.586 13 16 14.414 13.414 17 16 19.586 14.586 21 12 18.414 9.414 21 8 19.586 10.586 17 8 14.414 9.414 13zM22 9c0 1.105-.895 2-2 2H4c-1.105 0-2-.895-2-2V6c0-1.105.895-2 2-2h16c1.105 0 2 .895 2 2v3zM4 9h4V6H4v3zm6 0h4V6h-4v3zm6 0h4V6h-4v3z"/></svg>
